public/Snow.svg

<svg width="400" height="200" viewBox="0 0 400 200" fill="none" xmlns="http://www.w3.org/2000/svg">
<path d="M267.091 71.3827L264 69.6055L265.375 69.2345C265.577 69.1875 265.768 69.1002 265.935 68.978C266.103 68.8558 266.244 68.7011 266.351 68.5231C266.457 68.3452 266.527 68.1476 266.555 67.9421C266.584 67.7367 266.571 67.5276 266.517 67.3273C266.463 67.1271 266.369 66.9397 266.241 66.7764C266.113 66.6131 265.954 66.4773 265.772 66.3769C265.591 66.2766 265.391 66.2138 265.185 66.1923C264.978 66.1708 264.77 66.191 264.572 66.2518L260.214 67.4264L256.025 65L260.214 62.5736L264.572 63.7482H264.974C265.383 63.8015 265.798 63.6897 266.125 63.4376C266.453 63.1854 266.667 62.8135 266.72 62.4036C266.773 61.9938 266.661 61.5795 266.409 61.252C266.157 60.9245 265.785 60.7106 265.375 60.6573L264 60.3636L267.091 58.5864C267.267 58.4849 267.422 58.3496 267.546 58.1883C267.671 58.027 267.762 57.8428 267.815 57.6462C267.868 57.4495 267.882 57.2444 267.856 57.0424C267.83 56.8405 267.764 56.6457 267.663 56.4691C267.561 56.2925 267.426 56.1377 267.265 56.0134C267.103 55.8891 266.919 55.7978 266.722 55.7447C266.526 55.6916 266.321 55.6777 266.119 55.7039C265.917 55.7301 265.722 55.7958 265.545 55.8973L262.207 57.8445L262.671 56.1291C262.732 55.9308 262.752 55.7223 262.73 55.516C262.709 55.3097 262.646 55.1098 262.546 54.9283C262.445 54.7468 262.309 54.5873 262.146 54.4595C261.983 54.3316 261.796 54.2378 261.595 54.1839C261.395 54.1299 261.186 54.1168 260.98 54.1454C260.775 54.1739 260.577 54.2435 260.399 54.3501C260.222 54.4566 260.067 54.5978 259.945 54.7654C259.822 54.933 259.735 55.1235 259.688 55.3255L258.421 59.9618L254.48 62.3264V57.4891L257.679 54.29C257.967 54.0004 258.128 53.6087 258.128 53.2005C258.128 52.7922 257.967 52.4005 257.679 52.1109C257.535 51.9661 257.364 51.8511 257.176 51.7726C256.988 51.6942 256.786 51.6538 256.582 51.6538C256.378 51.6538 256.176 51.6942 255.987 51.7726C255.799 51.8511 255.628 51.9661 255.484 52.1109L254.48 53.1155V49.5455C254.48 49.1356 254.317 48.7425 254.027 48.4527C253.737 48.1628 253.344 48 252.934 48C252.525 48 252.131 48.1628 251.842 48.4527C251.552 48.7425 251.389 49.1356 251.389 49.5455V53.3627L250.137 52.1109C249.993 51.9661 249.823 51.8511 249.634 51.7726C249.446 51.6942 249.244 51.6538 249.04 51.6538C248.836 51.6538 248.634 51.6942 248.446 51.7726C248.257 51.8511 248.086 51.9661 247.943 52.1109C247.655 52.4005 247.493 52.7922 247.493 53.2005C247.493 53.6087 247.655 54.0004 247.943 54.29L251.389 57.7364V62.3727L247.417 60.0236L246.15 55.3873C246.103 55.1853 246.016 54.9948 245.893 54.8272C245.771 54.6597 245.616 54.5184 245.438 54.4119C245.26 54.3054 245.063 54.2357 244.857 54.2072C244.652 54.1786 244.443 54.1917 244.243 54.2457C244.042 54.2997 243.855 54.3934 243.692 54.5213C243.528 54.6492 243.393 54.8086 243.292 54.9901C243.192 55.1716 243.129 55.3715 243.108 55.5778C243.086 55.7841 243.106 55.9926 243.167 56.1909L243.662 57.8445L240.324 55.9282C240.147 55.8267 239.952 55.761 239.75 55.7348C239.548 55.7086 239.343 55.7225 239.146 55.7756C238.95 55.8287 238.766 55.92 238.604 56.0443C238.443 56.1686 238.308 56.3234 238.206 56.5C238.105 56.6766 238.039 56.8714 238.013 57.0734C237.987 57.2753 238.001 57.4805 238.054 57.6771C238.161 58.0741 238.421 58.4123 238.778 58.6173L241.869 60.3636L240.571 60.7655C240.161 60.8187 239.789 61.0327 239.537 61.3602C239.285 61.6877 239.173 62.1019 239.226 62.5118C239.28 62.9217 239.493 63.2936 239.821 63.5458C240.148 63.7979 240.563 63.9096 240.973 63.8564H241.374L245.733 62.6818L249.844 65L245.655 67.4264L241.297 66.2518C241.093 66.1759 240.874 66.1441 240.657 66.1586C240.439 66.173 240.227 66.2334 240.034 66.3357C239.842 66.438 239.673 66.5799 239.539 66.7522C239.405 66.9244 239.309 67.123 239.258 67.3349C239.206 67.5469 239.2 67.7674 239.24 67.9818C239.279 68.1963 239.364 68.4 239.488 68.5794C239.612 68.7589 239.773 68.91 239.959 69.0229C240.146 69.1358 240.354 69.208 240.571 69.2345L241.946 69.6055L238.855 71.3827C238.499 71.5877 238.238 71.9259 238.131 72.3229C238.024 72.72 238.079 73.1434 238.284 73.5C238.488 73.8566 238.827 74.1172 239.224 74.2244C239.621 74.3316 240.044 74.2768 240.401 74.0718L243.662 72.1555L243.198 73.8709C243.137 74.0687 243.116 74.2769 243.137 74.4829C243.157 74.689 243.219 74.8887 243.319 75.0704C243.418 75.252 243.553 75.4118 243.716 75.5403C243.878 75.6687 244.065 75.7633 244.264 75.8182C244.398 75.8334 244.533 75.8334 244.666 75.8182C245.015 75.8301 245.358 75.7236 245.638 75.5159C245.919 75.3083 246.121 75.0117 246.212 74.6745L247.479 70.0382L251.389 67.6736V72.5109L248.19 75.71C247.902 75.9996 247.74 76.3913 247.74 76.7995C247.74 77.2078 247.902 77.5995 248.19 77.8891C248.333 78.0351 248.504 78.1513 248.692 78.2309C248.88 78.3105 249.083 78.3519 249.287 78.3527C249.492 78.3519 249.694 78.3105 249.882 78.2309C250.071 78.1513 250.241 78.0351 250.384 77.8891L251.389 76.8845V80.4545C251.389 80.8644 251.552 81.2575 251.842 81.5473C252.131 81.8372 252.525 82 252.934 82C253.344 82 253.737 81.8372 254.027 81.5473C254.317 81.2575 254.48 80.8644 254.48 80.4545V76.6373L255.732 77.8891C255.875 78.0339 256.046 78.1489 256.235 78.2274C256.423 78.3058 256.625 78.3462 256.829 78.3462C257.033 78.3462 257.235 78.3058 257.423 78.2274C257.612 78.1489 257.783 78.0339 257.926 77.8891C258.214 77.5995 258.376 77.2078 258.376 76.7995C258.376 76.3913 258.214 75.9996 257.926 75.71L254.48 72.2636V67.6273L258.452 69.93L259.719 74.5664C259.81 74.9035 260.012 75.2001 260.292 75.4078C260.573 75.6154 260.916 75.722 261.264 75.71C261.398 75.7252 261.533 75.7252 261.666 75.71C261.864 75.658 262.049 75.5675 262.211 75.4436C262.373 75.3197 262.509 75.1649 262.611 74.9882C262.713 74.8114 262.779 74.6163 262.805 74.4139C262.831 74.2115 262.817 74.006 262.764 73.8091L262.207 72.1555L265.514 74.0718C265.691 74.1733 265.886 74.239 266.088 74.2652C266.29 74.2914 266.495 74.2775 266.691 74.2244C266.888 74.1713 267.072 74.08 267.234 73.9557C267.395 73.8314 267.53 73.6766 267.632 73.5C267.733 73.3234 267.799 73.1286 267.825 72.9266C267.851 72.7247 267.837 72.5195 267.784 72.3229C267.731 72.1263 267.64 71.9421 267.516 71.7808C267.391 71.6195 267.236 71.4842 267.06 71.3827H267.091Z" fill="url(#paint0_linear_222_1753)"/>
<path d="M366.114 55.6168L362.596 53.5937L364.162 53.1715C364.392 53.1179 364.608 53.0186 364.799 52.8795C364.99 52.7404 365.151 52.5643 365.272 52.3617C365.393 52.1591 365.472 51.9342 365.505 51.7003C365.537 51.4665 365.523 51.2285 365.461 51.0005C365.4 50.7726 365.293 50.5593 365.147 50.3734C365.002 50.1875 364.82 50.0329 364.614 49.9186C364.407 49.8044 364.18 49.7329 363.945 49.7084C363.71 49.684 363.473 49.707 363.247 49.7762L358.286 51.1132L353.518 48.3513L358.286 45.5893L363.247 46.9263H363.704C364.171 46.987 364.642 46.8598 365.015 46.5728C365.388 46.2857 365.631 45.8624 365.692 45.3958C365.753 44.9292 365.626 44.4577 365.339 44.0849C365.052 43.7121 364.628 43.4686 364.162 43.4079L362.596 43.0737L366.114 41.0506C366.315 40.9351 366.492 40.7811 366.633 40.5975C366.775 40.4138 366.879 40.2041 366.939 39.9803C366.999 39.7565 367.015 39.523 366.985 39.2931C366.956 39.0632 366.881 38.8414 366.765 38.6405C366.65 38.4395 366.496 38.2632 366.312 38.1217C366.128 37.9802 365.919 37.8763 365.695 37.8159C365.471 37.7554 365.238 37.7396 365.008 37.7694C364.778 37.7992 364.556 37.874 364.355 37.9895L360.555 40.2061L361.083 38.2534C361.152 38.0277 361.175 37.7904 361.151 37.5555C361.126 37.3207 361.055 37.0932 360.941 36.8866C360.826 36.68 360.672 36.4984 360.486 36.3529C360.3 36.2073 360.087 36.1006 359.859 36.0392C359.631 35.9778 359.393 35.9628 359.159 35.9953C358.925 36.0278 358.7 36.1071 358.498 36.2283C358.295 36.3496 358.119 36.5104 357.98 36.7011C357.841 36.8919 357.741 37.1087 357.688 37.3386L356.245 42.6163L351.759 45.3079V39.8015L355.401 36.16C355.728 35.8304 355.912 35.3845 355.912 34.9197C355.912 34.455 355.728 34.0091 355.401 33.6795C355.237 33.5146 355.043 33.3837 354.828 33.2944C354.614 33.2051 354.384 33.1591 354.152 33.1591C353.919 33.1591 353.69 33.2051 353.475 33.2944C353.261 33.3837 353.066 33.5146 352.903 33.6795L351.759 34.823V30.7592C351.759 30.2926 351.574 29.8452 351.244 29.5153C350.914 29.1853 350.467 29 350 29C349.533 29 349.086 29.1853 348.756 29.5153C348.426 29.8452 348.241 30.2926 348.241 30.7592V35.1044L346.816 33.6795C346.652 33.5146 346.458 33.3837 346.243 33.2944C346.029 33.2051 345.799 33.1591 345.567 33.1591C345.335 33.1591 345.105 33.2051 344.89 33.2944C344.676 33.3837 344.481 33.5146 344.318 33.6795C343.99 34.0091 343.806 34.455 343.806 34.9197C343.806 35.3845 343.99 35.8304 344.318 36.16L348.241 40.083V45.3606L343.72 42.6866L342.277 37.409C342.224 37.1791 342.124 36.9623 341.985 36.7715C341.846 36.5808 341.67 36.42 341.467 36.2987C341.265 36.1775 341.04 36.0982 340.806 36.0657C340.572 36.0332 340.334 36.0481 340.106 36.1095C339.878 36.171 339.665 36.2776 339.479 36.4232C339.293 36.5688 339.138 36.7503 339.024 36.9569C338.91 37.1636 338.838 37.3911 338.814 37.6259C338.79 37.8607 338.813 38.0981 338.882 38.3238L339.445 40.2061L335.645 38.0247C335.444 37.9092 335.222 37.8344 334.992 37.8046C334.762 37.7748 334.529 37.7906 334.305 37.851C334.081 37.9115 333.872 38.0154 333.688 38.1569C333.504 38.2984 333.35 38.4746 333.235 38.6756C333.119 38.8766 333.044 39.0984 333.015 39.3283C332.985 39.5582 333.001 39.7917 333.061 40.0155C333.183 40.4675 333.48 40.8525 333.886 41.0858L337.404 43.0737L335.926 43.5311C335.46 43.5917 335.036 43.8352 334.749 44.208C334.462 44.5808 334.335 45.0524 334.396 45.519C334.456 45.9855 334.7 46.4089 335.073 46.6959C335.446 46.9829 335.917 47.1101 336.384 47.0495H336.841L341.802 45.7125L346.482 48.3513L341.714 51.1132L336.753 49.7762C336.52 49.6898 336.272 49.6536 336.024 49.6701C335.776 49.6865 335.535 49.7553 335.316 49.8717C335.096 49.9882 334.904 50.1497 334.752 50.3458C334.599 50.5418 334.49 50.7679 334.432 51.0092C334.373 51.2504 334.366 51.5014 334.411 51.7455C334.456 51.9897 334.553 52.2215 334.694 52.4258C334.835 52.63 335.018 52.8021 335.23 52.9306C335.443 53.0591 335.68 53.1412 335.926 53.1715L337.492 53.5937L333.974 55.6168C333.568 55.8501 333.271 56.2351 333.149 56.6871C333.027 57.139 333.089 57.621 333.323 58.0269C333.556 58.4328 333.941 58.7295 334.393 58.8515C334.845 58.9736 335.327 58.9111 335.733 58.6778L339.445 56.4964L338.917 58.4491C338.847 58.6743 338.823 58.9112 338.847 59.1458C338.871 59.3803 338.941 59.6077 339.054 59.8145C339.168 60.0213 339.321 60.2032 339.506 60.3494C339.691 60.4956 339.904 60.6032 340.131 60.6657C340.283 60.683 340.436 60.683 340.588 60.6657C340.985 60.6793 341.375 60.5581 341.695 60.3217C342.014 60.0853 342.244 59.7477 342.347 59.3639L343.79 54.0863L348.241 51.3947V56.901L344.599 60.5426C344.272 60.8722 344.088 61.3181 344.088 61.7828C344.088 62.2476 344.272 62.6935 344.599 63.0231C344.762 63.1893 344.956 63.3215 345.171 63.4121C345.385 63.5027 345.616 63.5499 345.848 63.5508C346.081 63.5499 346.311 63.5027 346.526 63.4121C346.74 63.3215 346.934 63.1893 347.097 63.0231L348.241 61.8796V65.9433C348.241 66.4099 348.426 66.8574 348.756 67.1873C349.086 67.5172 349.533 67.7026 350 67.7026C350.467 67.7026 350.914 67.5172 351.244 67.1873C351.574 66.8574 351.759 66.4099 351.759 65.9433V61.5981L353.184 63.0231C353.348 63.188 353.542 63.3188 353.757 63.4081C353.971 63.4975 354.201 63.5434 354.433 63.5434C354.665 63.5434 354.895 63.4975 355.11 63.4081C355.324 63.3188 355.519 63.188 355.682 63.0231C356.01 62.6935 356.194 62.2476 356.194 61.7828C356.194 61.3181 356.01 60.8722 355.682 60.5426L351.759 56.6196V51.3419L356.28 53.9631L357.723 59.2408C357.826 59.6246 358.056 59.9621 358.375 60.1985C358.695 60.4349 359.085 60.5562 359.482 60.5426C359.634 60.5599 359.788 60.5599 359.94 60.5426C360.164 60.4834 360.375 60.3803 360.559 60.2393C360.744 60.0983 360.899 59.9221 361.015 59.7209C361.131 59.5197 361.206 59.2976 361.236 59.0672C361.266 58.8368 361.25 58.6029 361.189 58.3788L360.555 56.4964L364.32 58.6778C364.521 58.7933 364.743 58.8681 364.973 58.8979C365.202 58.9277 365.436 58.912 365.66 58.8515C365.884 58.7911 366.093 58.6871 366.277 58.5457C366.461 58.4042 366.615 58.2279 366.73 58.0269C366.846 57.8259 366.92 57.6042 366.95 57.3743C366.98 57.1444 366.964 56.9109 366.904 56.6871C366.843 56.4633 366.739 56.2535 366.598 56.0699C366.456 55.8863 366.28 55.7323 366.079 55.6168H366.114Z" fill="url(#paint1_linear_222_1753)"/>
<defs>
<linearGradient id="paint0_linear_222_1753" x1="252.934" y1="48" x2="252.934" y2="82" gradientUnits="userSpaceOnUse">
<stop stop-color="#AEFAFF"/>
<stop offset="1" stop-color="white"/>
</linearGradient>
<linearGradient id="paint1_linear_222_1753" x1="350" y1="29" x2="350" y2="67.7026" gradientUnits="userSpaceOnUse">
<stop stop-color="#AEFAFF"/>
<stop offset="1" stop-color="white"/>
</linearGradient>
</defs>
</svg>

<svg width="400" height="200" fill="none" xmlns="http://www.w3.org/2000/svg"><path d="M267.091 71.383 264 69.606l1.375-.371a1.54 1.54 0 0 0 1.18-1.293 1.537 1.537 0 0 0-.314-1.166 1.542 1.542 0 0 0-1.669-.524l-4.358 1.174L256.025 65l4.189-2.426 4.358 1.174h.402a1.557 1.557 0 1 0 .401-3.09L264 60.363l3.091-1.778a1.552 1.552 0 0 0-.972-2.882 1.556 1.556 0 0 0-.574.193l-3.338 1.947.464-1.715a1.542 1.542 0 0 0-1.691-1.984 1.546 1.546 0 0 0-1.292 1.18l-1.267 4.637-3.941 2.364V57.49l3.199-3.199a1.545 1.545 0 0 0-.503-2.517 1.544 1.544 0 0 0-1.692.338l-1.004 1.005v-3.57a1.545 1.545 0 0 0-3.091 0v3.817l-1.252-1.252a1.544 1.544 0 0 0-2.194 0 1.546 1.546 0 0 0 0 2.179l3.446 3.446v4.637l-3.972-2.35-1.267-4.636a1.533 1.533 0 0 0-.712-.975 1.542 1.542 0 0 0-1.746.11 1.546 1.546 0 0 0-.525 1.669l.495 1.653-3.338-1.916a1.556 1.556 0 0 0-1.72.116 1.562 1.562 0 0 0-.591 1.03 1.556 1.556 0 0 0 .765 1.543l3.091 1.747-1.298.402a1.558 1.558 0 1 0 .402 3.09h.401l4.359-1.174L249.844 65l-4.189 2.426-4.358-1.174a1.544 1.544 0 0 0-2.057 1.73 1.535 1.535 0 0 0 .719 1.04c.187.114.395.186.612.212l1.375.372-3.091 1.777a1.552 1.552 0 0 0 1.546 2.689l3.261-1.916-.464 1.715c-.061.198-.082.406-.061.612a1.532 1.532 0 0 0 1.127 1.335c.134.015.269.015.402 0a1.544 1.544 0 0 0 1.546-1.144l1.267-4.636 3.91-2.364v4.837l-3.199 3.199a1.545 1.545 0 0 0 0 2.18 1.548 1.548 0 0 0 1.097.463 1.54 1.54 0 0 0 1.097-.464l1.005-1.004v3.57a1.545 1.545 0 0 0 3.091 0v-3.818l1.252 1.252a1.533 1.533 0 0 0 1.097.457 1.544 1.544 0 0 0 1.097-.457 1.546 1.546 0 0 0 0-2.179l-3.446-3.446v-4.637l3.972 2.303 1.267 4.636a1.547 1.547 0 0 0 1.545 1.144c.134.015.269.015.402 0a1.54 1.54 0 0 0 1.139-1.296 1.562 1.562 0 0 0-.041-.605l-.557-1.653 3.307 1.916a1.556 1.556 0 0 0 1.72-.116 1.562 1.562 0 0 0 .591-1.03 1.556 1.556 0 0 0-.765-1.543h.031Z" fill="url(#a)"/><path d="m366.114 55.617-3.518-2.023 1.566-.422a1.76 1.76 0 1 0-.915-3.396l-4.961 1.337-4.768-2.762 4.768-2.762 4.961 1.337h.457a1.774 1.774 0 0 0 .458-3.518l-1.566-.334 3.518-2.023a1.76 1.76 0 0 0 .871-1.758 1.753 1.753 0 0 0-1.29-1.477 1.763 1.763 0 0 0-1.34.174l-3.8 2.216.528-1.953a1.771 1.771 0 0 0-.142-1.366 1.768 1.768 0 0 0-1.082-.848 1.76 1.76 0 0 0-2.171 1.3l-1.443 5.277-4.486 2.692V39.8l3.642-3.641a1.761 1.761 0 0 0-1.926-2.866c-.214.09-.409.22-.572.386l-1.144 1.143v-4.064a1.758 1.758 0 1 0-3.518 0v4.345l-1.425-1.425a1.76 1.76 0 1 0-2.498 2.481l3.923 3.923v5.278l-4.521-2.674-1.443-5.278a1.753 1.753 0 0 0-.81-1.11 1.754 1.754 0 0 0-1.988.124 1.755 1.755 0 0 0-.597 1.9l.563 1.883-3.8-2.181a1.766 1.766 0 0 0-1.759 3.06l3.518 1.989-1.478.457a1.775 1.775 0 0 0 .458 3.519h.457l4.961-1.337 4.68 2.638-4.768 2.762-4.961-1.337a1.76 1.76 0 1 0-.827 3.395l1.566.423-3.518 2.023a1.765 1.765 0 1 0 1.759 3.06l3.712-2.18-.528 1.952a1.748 1.748 0 0 0 .137 1.366 1.769 1.769 0 0 0 1.077.85c.152.018.305.018.457 0a1.761 1.761 0 0 0 1.759-1.301l1.443-5.278 4.451-2.691V56.9l-3.642 3.642a1.761 1.761 0 0 0 0 2.48 1.756 1.756 0 0 0 1.249.528 1.762 1.762 0 0 0 1.249-.528l1.144-1.143v4.063a1.759 1.759 0 1 0 3.518 0v-4.345l1.425 1.425a1.759 1.759 0 0 0 2.498 0 1.758 1.758 0 0 0 0-2.48l-3.923-3.923v-5.278l4.521 2.621 1.443 5.278a1.76 1.76 0 0 0 1.759 1.302c.152.017.306.017.458 0a1.756 1.756 0 0 0 1.296-1.476c.03-.23.014-.464-.047-.688l-.634-1.883 3.765 2.182a1.766 1.766 0 0 0 2.278-2.608 1.773 1.773 0 0 0-.519-.453h.035Z" fill="url(#b)"/><defs><linearGradient id="a" x1="252.934" y1="48" x2="252.934" y2="82" gradientUnits="userSpaceOnUse"><stop stop-color="#AEFAFF"/><stop offset="1" stop-color="#fff"/></linearGradient><linearGradient id="b" x1="350" y1="29" x2="350" y2="67.703" gradientUnits="userSpaceOnUse"><stop stop-color="#AEFAFF"/><stop offset="1" stop-color="#fff"/></linearGradient></defs></svg>
